src/images/icons/bifi.svg

<svg width="24" height="24" viewBox="0 0 24 24" fill="none" xmlns="http://www.w3.org/2000/svg">
<path d="M0 12.2921V11.7533C0.0566003 11.3617 0.081756 10.9664 0.103138 10.5761C0.480474 7.25987 2.05648 4.61469 4.63116 2.54361C6.18848 1.26269 8.06703 0.433984 10.0623 0.147706C13.3778 -0.319388 16.4531 0.29627 19.1548 2.3535C21.3471 4.02924 22.8917 6.16957 23.6048 8.85756C23.9552 10.2046 24.0738 11.6015 23.9558 12.9884C23.8099 14.8895 23.2854 16.671 22.2515 18.2762C20.4289 21.1078 17.9272 23.0479 14.5966 23.7114C9.85348 24.6569 5.85876 23.2796 2.71178 19.573C1.39279 18.0235 0.522812 16.1421 0.196214 14.1328C0.158481 13.9138 0.133325 13.6947 0.103138 13.4744L0 12.2921ZM22.6716 11.9774C22.709 11.3238 22.6638 10.6681 22.537 10.0259C22.3289 8.86588 21.9225 7.75043 21.3358 6.72857C20.6118 5.49626 19.6644 4.41002 18.5423 3.52564C17.4962 2.68629 16.2921 2.06629 15.0016 1.70259C14.2429 1.47315 13.4569 1.34612 12.6646 1.32488C12.4747 1.32488 12.2873 1.26193 12.0974 1.28837C11.869 1.31974 11.6385 1.33237 11.4081 1.32614C11.1271 1.32945 10.8469 1.35641 10.5704 1.40672C9.54593 1.54786 8.54631 1.83224 7.60079 2.25152C5.09046 3.38737 3.11415 5.44813 2.08289 8.00521C1.64814 9.07693 1.39315 10.2132 1.32822 11.368C1.28948 12.091 1.32319 12.816 1.42884 13.5323C1.55929 14.5197 1.83125 15.4831 2.23634 16.3928C3.02371 18.1377 4.23119 19.5504 5.74807 20.691C7.55677 22.0508 9.6296 22.6626 11.8773 22.7143C12.2181 22.7218 12.5565 22.6954 12.8973 22.6689C13.3267 22.6388 13.7539 22.5824 14.1765 22.5002C15.2232 22.2975 16.2305 21.9276 17.16 21.4049C18.6077 20.5861 19.8561 19.456 20.8151 18.0962C21.4088 17.2697 21.8693 16.355 22.1798 15.3855C22.5503 14.2891 22.7169 13.134 22.6716 11.9774Z" fill="#5C70D6"/>
<path d="M8.19071 7.50917C8.19071 7.18309 8.19071 6.90233 8.19071 6.62786C8.20203 5.98325 8.54163 5.47587 9.10009 5.26058C9.3948 5.13754 9.72007 5.10779 10.0322 5.17531C10.3443 5.24284 10.6283 5.4044 10.8459 5.63828C11.0868 5.88815 11.2219 6.22147 11.2232 6.56869C11.2232 6.86959 11.2232 7.1705 11.2232 7.48903C11.5012 7.54568 11.7704 7.50791 12.037 7.51547C12.3037 7.52302 12.5565 7.51547 12.8319 7.51547C12.8619 7.27496 12.8695 7.03219 12.8546 6.79028C12.8508 6.60926 12.8681 6.42843 12.9061 6.25142C12.9874 5.93689 13.171 5.6584 13.4279 5.45984C13.6848 5.26129 14.0004 5.15397 14.3249 5.15482C15.0595 5.14349 15.6619 5.56148 15.8343 6.20735C15.878 6.3938 15.8987 6.58493 15.8959 6.77643C15.8959 7.00809 15.8959 7.23974 15.8959 7.46259C15.9651 7.5482 16.0519 7.51673 16.1273 7.51673C16.7009 7.51673 17.2732 7.51673 17.8467 7.51673C17.9572 7.51191 18.0678 7.52036 18.1763 7.54191C18.3106 7.56685 18.4337 7.63377 18.5277 7.73308C18.6217 7.83238 18.6818 7.95895 18.6995 8.09461C18.7352 8.32422 18.7228 8.55876 18.663 8.78329C18.538 9.29411 18.295 9.76845 17.9536 10.1682C17.6187 10.5439 17.2599 10.8976 16.8795 11.227C16.7688 11.3278 16.6569 11.431 16.555 11.5418C16.4827 11.6184 16.4263 11.7086 16.3889 11.8071C16.3516 11.9056 16.3341 12.0106 16.3374 12.1159C16.3449 13.3636 16.3474 14.6125 16.3374 15.8615C16.3319 16.6228 16.07 17.3601 15.5941 17.9541C15.1183 18.5481 14.4562 18.9641 13.7149 19.1349C13.4505 19.1963 13.18 19.2271 12.9087 19.2268C12.2144 19.2268 11.5251 19.2356 10.827 19.2268C10.0223 19.2248 9.24458 18.9359 8.63332 18.4119C8.02207 17.888 7.61723 17.1632 7.49138 16.3676C7.45924 16.1484 7.44536 15.9269 7.44987 15.7053C7.44987 14.5571 7.42975 13.4089 7.44987 12.2619C7.45767 12.096 7.42776 11.9305 7.3624 11.7779C7.29704 11.6252 7.19793 11.4894 7.07254 11.3806C6.7539 11.086 6.43736 10.7923 6.12291 10.4993C5.7199 10.1184 5.40705 9.6521 5.20724 9.13456C5.0949 8.86475 5.04007 8.57444 5.04625 8.28221C5.06134 7.76349 5.30912 7.51421 5.83865 7.50917C6.26001 7.50917 6.68262 7.50917 7.10524 7.50917H8.19071ZM10.5491 9.00362C10.5221 8.98175 10.4907 8.96603 10.457 8.95755C10.4233 8.94907 10.3882 8.94804 10.3541 8.95452C9.58936 8.95452 8.82589 8.95452 8.06241 8.95452C7.69263 8.95452 7.54672 9.12449 7.6071 9.48834C7.65327 9.79943 7.79632 10.088 8.01588 10.313C8.18442 10.4842 8.35296 10.658 8.53283 10.8166C8.6513 10.9179 8.74466 11.0453 8.80556 11.1888C8.86645 11.3324 8.89322 11.4881 8.88375 11.6438C8.86865 12.3375 8.88375 13.0287 8.88375 13.7262C8.88375 14.401 8.88375 15.0746 8.88375 15.7494C8.87753 16.0194 8.92663 16.2879 9.02801 16.5382C9.12939 16.7885 9.28092 17.0153 9.47324 17.2048C9.66556 17.3942 9.89461 17.5422 10.1463 17.6397C10.3979 17.7371 10.6668 17.7819 10.9365 17.7714C11.6194 17.7462 12.3024 17.7714 12.9866 17.7626C13.3709 17.7558 13.7446 17.6351 14.0603 17.4157C14.376 17.1963 14.6195 16.8881 14.7601 16.53C14.9563 16.0377 14.8934 15.5228 14.8859 15.0444C12.0584 13.983 10.5491 12.0177 10.5491 9.00362ZM14.1463 13.4228C14.3171 13.4228 14.4809 13.3548 14.6017 13.234C14.7225 13.1131 14.7903 12.9491 14.7903 12.7781C14.7903 12.6072 14.7225 12.4432 14.6017 12.3223C14.4809 12.2014 14.3171 12.1335 14.1463 12.1335C13.9755 12.1335 13.8117 12.2014 13.691 12.3223C13.5702 12.4432 13.5023 12.6072 13.5023 12.7781C13.5023 12.9491 13.5702 13.1131 13.691 13.234C13.8117 13.3548 13.9755 13.4228 14.1463 13.4228V13.4228ZM14.8783 7.5054C14.8783 7.17931 14.8909 6.87589 14.8783 6.55988C14.8658 6.31563 14.6935 6.18217 14.4293 6.16581C14.1249 6.14818 13.9124 6.26905 13.886 6.52085C13.852 6.84815 13.852 7.17809 13.886 7.5054H14.8783ZM10.173 7.5054C10.1881 7.47644 10.2044 7.46007 10.2044 7.44245C10.2044 7.20323 10.2157 6.96276 10.2157 6.72355C10.2168 6.64254 10.2075 6.56172 10.1881 6.48308C10.1264 6.25394 9.92771 6.13685 9.64974 6.15951C9.39818 6.17965 9.22461 6.32318 9.21455 6.56491C9.20071 6.87337 9.21455 7.18183 9.21455 7.50288L10.173 7.5054Z" fill="#5C70D6"/>
<path d="M10.7984 12.7882C10.7964 12.9152 10.757 13.0387 10.685 13.1433C10.613 13.2478 10.5117 13.3287 10.3939 13.3757C10.2761 13.4228 10.147 13.4339 10.0229 13.4076C9.89877 13.3813 9.7852 13.3189 9.69647 13.2282C9.60774 13.1374 9.54782 13.0224 9.52425 12.8977C9.50068 12.7729 9.51453 12.644 9.56403 12.5271C9.61354 12.4102 9.69649 12.3105 9.80245 12.2407C9.90841 12.1709 10.0326 12.1341 10.1595 12.1348C10.245 12.1334 10.3298 12.1494 10.4089 12.1819C10.488 12.2144 10.5596 12.2627 10.6194 12.3239C10.6792 12.385 10.726 12.4578 10.7567 12.5376C10.7875 12.6174 10.8017 12.7027 10.7984 12.7882V12.7882Z" fill="#5C70D6"/>
</svg>

<svg xmlns="http://www.w3.org/2000/svg" width="24" height="24" fill="none"><path fill="#5C70D6" d="M0 12.292v-.539c.057-.391.082-.787.103-1.177C.48 7.26 2.056 4.615 4.631 2.544A11 11 0 0 1 10.062.148c3.316-.467 6.391.148 9.093 2.206 2.192 1.675 3.737 3.816 4.45 6.504.35 1.347.469 2.743.35 4.13-.145 1.902-.67 3.683-1.703 5.288-1.823 2.832-4.325 4.772-7.655 5.435-4.744.946-8.738-.431-11.885-4.138a11.15 11.15 0 0 1-2.516-5.44c-.038-.22-.063-.438-.093-.659zm22.672-.315a7.8 7.8 0 0 0-.135-1.951 10.3 10.3 0 0 0-1.201-3.297 11.5 11.5 0 0 0-2.794-3.203 10 10 0 0 0-3.54-1.823 9 9 0 0 0-2.337-.378c-.19 0-.378-.063-.568-.037a4 4 0 0 1-.689.038q-.421.005-.838.08a11 11 0 0 0-2.97.846 10.7 10.7 0 0 0-5.517 5.753 10.5 10.5 0 0 0-.654 5.527c.13.988.402 1.951.807 2.86.788 1.746 1.995 3.158 3.512 4.299 1.809 1.36 3.882 1.972 6.13 2.023.34.008.678-.019 1.02-.045q.644-.046 1.279-.169a10 10 0 0 0 2.983-1.095 11.25 11.25 0 0 0 3.655-3.309 9.7 9.7 0 0 0 1.365-2.71 9.5 9.5 0 0 0 .492-3.409"/><path fill="#5C70D6" d="M8.19 7.51v-.882c.012-.645.352-1.152.91-1.367a1.56 1.56 0 0 1 1.746.377c.24.25.376.583.377.93v.921c.278.057.547.019.814.026.267.008.52 0 .795 0q.045-.361.023-.725a2.3 2.3 0 0 1 .051-.539 1.46 1.46 0 0 1 1.419-1.096c.735-.012 1.337.406 1.51 1.052q.065.281.06.57v.686c.07.085.157.054.232.054h1.72q.165-.008.33.025a.65.65 0 0 1 .523.553c.035.23.023.464-.037.688-.125.511-.368.985-.71 1.385q-.502.565-1.073 1.059c-.111.1-.223.204-.325.315a.8.8 0 0 0-.218.574q.014 1.872 0 3.746a3.386 3.386 0 0 1-2.622 3.273 3.6 3.6 0 0 1-.806.092c-.695 0-1.384.009-2.082 0a3.38 3.38 0 0 1-3.336-2.86 4 4 0 0 1-.041-.662c0-1.148-.02-2.296 0-3.443a1.1 1.1 0 0 0-.377-.881q-.48-.443-.95-.882a3.7 3.7 0 0 1-.916-1.364 2.1 2.1 0 0 1-.16-.853c.014-.519.262-.768.792-.773H8.19m2.36 1.494a.24.24 0 0 0-.196-.05H8.062c-.37 0-.515.17-.455.534.046.311.19.6.409.825.168.171.337.345.517.504a1 1 0 0 1 .35.827c-.014.694 0 1.385 0 2.082v2.023a1.98 1.98 0 0 0 2.054 2.022c.682-.025 1.365 0 2.05-.008a1.94 1.94 0 0 0 1.773-1.233c.196-.492.133-1.007.126-1.486-2.828-1.061-4.337-3.026-4.337-6.04m3.596 4.419a.644.644 0 1 0 0-1.289.644.644 0 0 0 0 1.289m.732-5.918c0-.326.013-.63 0-.945-.012-.244-.184-.378-.449-.394-.304-.018-.517.103-.543.355a4.8 4.8 0 0 0 0 .984zm-4.705 0c.015-.029.031-.045.031-.063 0-.239.012-.48.012-.718a1 1 0 0 0-.028-.24c-.062-.23-.26-.347-.538-.324-.252.02-.425.163-.435.405-.014.308 0 .617 0 .938z"/><path fill="#5C70D6" d="M10.798 12.788a.644.644 0 0 1-1.102.44.644.644 0 0 1 .463-1.093.63.63 0 0 1 .64.653"/></svg>
